X:577
T:Sheridan of Coolcanig.
T:ua siridein ua cuil-carraig.
R:air
N:"Distinctly." "Collected from O'Brien."
B:O'Neill's 577
Z:Transcribed by J.B. Walsh walsh@math.ubc.ca
M:6/8
L:1/8
<START_ANN> %Q:85 <END_ANN>
K:D
d/c/|A2 F G2A|Bcd A2 F|G2 AGF D2D|D3-D2 A|
ABc d2 e|f2 d efg|fdA ABc|d3-d2 A|
ABc d2e|f2 d efg|fdA ABc|d3 dcB|
A2 F G2 A|Bcd A2 F|G2AGF D2 D|D3-D2||
